X: 24
I: linebreak $
T: Temperans
T: for three
C: 
C: 
P: AAA BCDE
N: 
K: C major
M: 6/8
L: 1/8
P: A (3x)
"^Drone: C"C2C D2D | C3 C2C | EEE ED2 | G3 A3 | G2F DE2 | D6 "^(3)":| 
M: 9/8
P: B
FFF FFF FFG | 
M: 6/8
A2G FE2 | D6 || 
P: C
C2C D2D | C3 C2C | EEE ED2 | G3 A3 | 
G2F DE2 | D6 || 
P: D
F2A2G2 | F6 || 
P: E
C3 F3 | A3 G2G | 
F2F CD2 | C6 |] 

